static/img/svg/tag-remove.svg

<svg xmlns="http://www.w3.org/2000/svg" width="24" height="24" viewBox="0 0 24 24"><path d="M12.707 15.707L15 13.414l2.293 2.293 1.414-1.414L16.414 12l2.293-2.293-1.414-1.414L15 10.586l-2.293-2.293-1.414 1.414L13.586 12l-2.293 2.293z"/><path d="M21 5.01H8c-.297 0-.578.132-.768.359l-5 5.99a.998.998 0 0 0 0 1.281l5 5.99a1 1 0 0 0 .768.36h13a1 1 0 0 0 1-1V6.01a1 1 0 0 0-1-1zm-1 11.98H8.468L4.303 12l4.165-4.99H20v9.98z"/></svg>

<svg xmlns="http://www.w3.org/2000/svg" width="24" height="24" viewBox="0 0 24 24"><path d="M12.707 15.707L15 13.414 17.293 15.707 18.707 14.293 16.414 12 18.707 9.707 17.293 8.293 15 10.586 12.707 8.293 11.293 9.707 13.586 12 11.293 14.293z"/><path d="M21,5.01H8c-0.297,0-0.578,0.132-0.768,0.359l-5,5.99c-0.31,0.371-0.31,0.91,0,1.281l5,5.99 C7.422,18.858,7.703,18.99,8,18.99h13c0.553,0,1-0.447,1-1V6.01C22,5.457,21.553,5.01,21,5.01z M20,16.99H8.468L4.303,12 l4.165-4.99H20V16.99z"/></svg>
